!!!COM: Gomółka, Mikołaj
!!!CDT: ~1535-after 1591
!!!OTL@POL: I Ziemia, i cokolwiek
!!!OTL@LAT: Domini est terra
!!!AGn: Motet; Psalm
!!!SCn: Gom2024
!!!SCn: Gom2024
!!!voices: 4
**kern	**kern	**kern	**kern
*staff4	*staff3	*staff2	*staff1
*Ivox	*Ivox	*Ivox	*Ivox
*I"Bassus	*I"Tenor	*I"Altus	*I"Cantus
*I'B	*I'T	*I'A	*I'C
*clefF4	*clefGv2	*clefGv2	*clefG2
*k[]	*k[]	*k[]	*k[]
*M2/1	*M2/1	*M2/1	*M2/1
*met(C|)	*met(C|)	*met(C|)	*met(C|)
=1-	=1-	=1-	=1-
1C	1G	1c	1e
2F	2A	4c	2f
.	.	4d	.
2E	2B	[2e	2g
=2	=2	=2	=2
2A	2c	2e]	2g
2A	2c	2A	2f
2.G	1d	1B	2g
.	.	.	[2g
4F	.	.	.
=3	=3	=3	=3
2E	2e	2c	2g]
2F	2c	2A	2.a
1D	2.d	1f	.
.	.	.	4g
.	.	.	4f
.	4c	.	4e
=4	=4	=4	=4
2G	2B	2g	2d
2C	4c	2e	2e
.	4B	.	.
1D	4A	2.d	4f#i
.	4G	.	2g
.	2A	.	.
.	.	4c	4f#
=5	=5	=5	=5
*M1/1	*M1/1	*M1/1	*M1/1
1GG	1G	1B	1g
=6:|!	=6:|!	=6:|!	=6:|!
*M2/1	*M2/1	*M2/1	*M2/1
1GG	1d	1g	1b
1C	1e	2g	1cc
.	.	2c	.
=7	=7	=7	=7
2.FF	2.f	2.c	2.a
4FF	4f	4c	4a
2C	2e	4c	4g
.	.	4d	4f
2C	2e	4e	4g
.	.	4f	4a
=8	=8	=8	=8
2GG	2d	2g	2b
2G	2B	2d	2g
2E	4e	2g	2g
.	4d	.	.
4A	4c	[2a	2e
4G	4B	.	.
=9	=9	=9	=9
4F	1A	4a]	2.f
4E	.	4g	.
2D	.	2f	.
.	.	.	4e
1G	4B	1g	4d
.	2c	.	2e
.	4B	.	4d
=10	=10	=10	=10
2C	1c	2g	2e
2C	.	2g	2e
2F	2r	2a	2f
2E	2G	2g	2g
=11	=11	=11	=11
2F	2c	2f	2a
2G	2B	2f	2g
2A	2c	2.e	2cc
4G	2d	.	4b
4F	.	4f	4a
=12	=12	=12	=12
4E	1e	2g	4g
4D	.	.	4f
2C	.	2c	4e
.	.	.	4f
2G	2d	2B	1g
2GG	2B	2d	.
=13	=13	=13	=13
2C	2.c	2e	2.g
2C	.	2e	.
.	4B	.	4e
1D	4A	2.d	4f#i
.	4G	.	2g
.	2A	.	.
.	.	4c	4f#
=14	=14	=14	=14
0GG	0G	0B	0g
==	==	==	==
*-	*-	*-	*-
!!!CNT: Polish
!!!OCY: Poland
!!!LYR: Jan Kochanowski (1530-1584/08/22)
!!!GTL: Melodiae na Psałterz Polski
!!!EFL: 24/150
!!!PPR: Łazarz Andrysowicz
!!!PPP: Kraków
!!!PDT: 1580
!!!YEC: 2015 Marcin Konik
!!!ENC: Marcin Konik
!!!END: 2015/05/19
!!!EED: Marcin Konik
!!!EEV: 2015/05/19
!!!ONB: Translated from MusicXML and edited on 2015/03/06 by Marcin Konik
!!!CharacterEncoding: utf-8
!!muse2ps: i2I150v85,85,85,150Q16
!!title: @{OTL}, @{GTL}, ed. @{ENC}
